assets/glyphs/for-notes/unit_attack.svg

<?xml version="1.0" encoding="UTF-8" standalone="no"?>
<svg
   version="1.1"
   viewBox="-10 0 1375 1000"
   id="svg1"
   sodipodi:docname="unit_attack.svg"
   inkscape:version="1.3.2 (091e20ef0f, 2023-11-25, custom)"
   xmlns:inkscape="http://www.inkscape.org/namespaces/inkscape"
   xmlns:sodipodi="http://sodipodi.sourceforge.net/DTD/sodipodi-0.dtd"
   xmlns="http://www.w3.org/2000/svg"
   xmlns:svg="http://www.w3.org/2000/svg">
  <defs
     id="defs1" />
  <sodipodi:namedview
     id="namedview1"
     pagecolor="#ffffff"
     bordercolor="#000000"
     borderopacity="0.25"
     inkscape:showpageshadow="2"
     inkscape:pageopacity="0.0"
     inkscape:pagecheckerboard="0"
     inkscape:deskcolor="#d1d1d1"
     inkscape:zoom="0.62"
     inkscape:cx="687.09677"
     inkscape:cy="500"
     inkscape:window-width="1440"
     inkscape:window-height="868"
     inkscape:window-x="0"
     inkscape:window-y="0"
     inkscape:window-maximized="1"
     inkscape:current-layer="svg1" />
  <path
     fill="currentColor"
     d="M630 819q62 -86 105 -183q33 -72 53 -148q-8 -7 -26.5 -23t-27.5 -24q-10 2 -29 7t-29 8q-60 124 -181 371.5t-181 371.5q-35 37 -83 47.5t-89 -8.5q-51 -24 -71.5 -81.5t3.5 -116.5q331 -452 479 -655q-12 -44 -16 -58q-44 -15 -68 -23q-55 56 -102 120q-62 86 -106 183 q-95 -71 -146 -177t-48.5 -221.5t59.5 -215.5q54 -95 146.5 -156t199 -75t218.5 19q-72 43 -120.5 103t-64.5 132q-26 125 28 179q35 33 93 37q1 1 2 1q22 -31 67.5 -91.5t67.5 -90.5q-1 -12 -4 -35.5t-4 -34.5q40 -37 122.5 -114.5t125.5 -116.5q-51 220 -77 330 q-11 5 -32.5 14t-32.5 13q-14 34 -44 103.5t-45 105.5l1 1q33 49 79 61q73 21 169 -65q55 -50 82.5 -122t28.5 -155q84 75 126 178t35 212t-63 203q-43 75 -112 128.5t-148.5 79t-168.5 22t-171 -39.5z"
     id="path1"
     style="fill:#e8d66b;fill-opacity:1" />
</svg>

<?xml version="1.0" encoding="UTF-8" standalone="no"?>
<svg
   version="1.1"
   viewBox="-10 0 1890625 1000000"
   id="svg1"
   sodipodi:docname="unit_attack.svg"
   inkscape:export-filename="for-notes/unit_attack.png"
   inkscape:export-xdpi="96"
   inkscape:export-ydpi="96"
   width="1890625"
   height="1000000"
   xmlns:inkscape="http://www.inkscape.org/namespaces/inkscape"
   xmlns:sodipodi="http://sodipodi.sourceforge.net/DTD/sodipodi-0.dtd"
   xmlns="http://www.w3.org/2000/svg"
   xmlns:svg="http://www.w3.org/2000/svg">
  <defs
     id="defs1" />
  <sodipodi:namedview
     id="namedview1"
     pagecolor="#ffffff"
     bordercolor="#000000"
     borderopacity="0.25"
     inkscape:showpageshadow="2"
     inkscape:pageopacity="0.0"
     inkscape:pagecheckerboard="0"
     inkscape:deskcolor="#d1d1d1" />
  <path
     fill="currentColor"
     d="m 630,819 q 62,-86 105,-183 33,-72 53,-148 -8,-7 -26.5,-23 -18.5,-16 -27.5,-24 -10,2 -29,7 -19,5 -29,8 Q 616,580 495,827.5 374,1075 314,1199 279,1236 231,1246.5 183,1257 142,1238 91,1214 70.5,1156.5 50,1099 74,1040 405,588 553,385 541,341 537,327 493,312 469,304 414,360 367,424 305,510 261,607 166,536 115,430 64,324 66.5,208.5 69,93 126,-7 q 54,-95 146.5,-156 92.5,-61 199,-75 106.5,-14 218.5,19 -72,43 -120.5,103 -48.5,60 -64.5,132 -26,125 28,179 35,33 93,37 1,1 2,1 22,-31 67.5,-91.5 Q 741,81 763,51 762,39 759,15.5 756,-8 755,-19 795,-56 877.5,-133.5 960,-211 1003,-250 952,-30 926,80 915,85 893.5,94 872,103 861,107 847,141 817,210.5 787,280 772,316 l 1,1 q 33,49 79,61 73,21 169,-65 55,-50 82.5,-122 27.5,-72 28.5,-155 84,75 126,178 42,103 35,212 -7,109 -63,203 -43,75 -112,128.5 -69,53.5 -148.5,79 Q 890,862 801,858.5 712,855 630,819 Z"
     id="path1"
     style="fill:#e8d66b;fill-opacity:1" />
</svg>
